styles/1/Numix/16/places/brown-folder-open.svg

<?xml version="1.0" encoding="UTF-8" standalone="no"?>
<!-- Created with Inkscape (http://www.inkscape.org/) -->

<svg
   xmlns:dc="http://purl.org/dc/elements/1.1/"
   xmlns:cc="http://creativecommons.org/ns#"
   xmlns:rdf="http://www.w3.org/1999/02/22-rdf-syntax-ns#"
   xmlns:svg="http://www.w3.org/2000/svg"
   xmlns="http://www.w3.org/2000/svg"
   xmlns:sodipodi="http://sodipodi.sourceforge.net/DTD/sodipodi-0.dtd"
   xmlns:inkscape="http://www.inkscape.org/namespaces/inkscape"
   id="svg3396"
   height="16"
   width="16"
   version="1.0"
   inkscape:version="0.91 r"
   sodipodi:docname="brown-folder-open.svg">
  <metadata
     id="metadata64">
    <rdf:RDF>
      <cc:Work
         rdf:about="">
        <dc:format>image/svg+xml</dc:format>
        <dc:type
           rdf:resource="http://purl.org/dc/dcmitype/StillImage" />
        <dc:title />
      </cc:Work>
    </rdf:RDF>
  </metadata>
  <sodipodi:namedview
     pagecolor="#ffffff"
     bordercolor="#666666"
     borderopacity="1"
     objecttolerance="10"
     gridtolerance="10"
     guidetolerance="10"
     inkscape:pageopacity="0"
     inkscape:pageshadow="2"
     inkscape:window-width="1280"
     inkscape:window-height="998"
     id="namedview62"
     showgrid="true"
     inkscape:zoom="11.313709"
     inkscape:cx="5.9274498"
     inkscape:cy="9.7254428"
     inkscape:window-x="0"
     inkscape:window-y="0"
     inkscape:window-maximized="1"
     inkscape:current-layer="svg3396">
    <inkscape:grid
       type="xygrid"
       id="grid3906"
       empspacing="5"
       visible="true"
       enabled="true"
       snapvisiblegridlinesonly="true" />
  </sodipodi:namedview>
  <defs
     id="defs3398" />
  <path
     style="font-size:medium;font-style:normal;font-variant:normal;font-weight:normal;font-stretch:normal;text-indent:0;text-align:start;text-decoration:none;line-height:normal;letter-spacing:normal;word-spacing:normal;text-transform:none;direction:ltr;block-progression:tb;writing-mode:lr-tb;text-anchor:start;baseline-shift:baseline;color:#000000;fill:#8d6e63;fill-opacity:1;fill-rule:nonzero;stroke:none;stroke-width:1.21926904;marker:none;visibility:visible;display:inline;overflow:visible;enable-background:accumulate;font-family:Sans;-inkscape-font-specification:Sans"
     d="m 0,8 0,6.375 C -0.00837941,14.704465 0.29553521,15.008379 0.625,15 l 14.75,0 C 15.704465,15.0084 16.008379,14.704465 16,14.375 L 16,10 9,10 9,8 z"
     id="path3798"
     inkscape:connector-curvature="0"
     sodipodi:nodetypes="ccccccccc" />
  <path
     style="font-size:medium;font-style:normal;font-variant:normal;font-weight:normal;font-stretch:normal;text-indent:0;text-align:start;text-decoration:none;line-height:normal;letter-spacing:normal;word-spacing:normal;text-transform:none;direction:ltr;block-progression:tb;writing-mode:lr-tb;text-anchor:start;baseline-shift:baseline;opacity:0.4;color:#000000;fill:#8d6e63;fill-opacity:1;fill-rule:nonzero;stroke:none;stroke-width:1.21926904;marker:none;visibility:visible;display:inline;overflow:visible;enable-background:accumulate;font-family:Sans;-inkscape-font-specification:Sans"
     d="m 0,11 16,0 0,-6.34375 C 16.0084,4.3267852 15.704465,3.9916206 15.375,4 L 9,4 9,2.625 C 8.9917563,2.3059508 8.7565524,1.9918821 8.4375,2 L 0.5,2 C 0.22409463,2.0504499 0.00276092,2.3445337 0,2.625 z"
     id="path3912"
     inkscape:connector-curvature="0"
     sodipodi:nodetypes="cccccccccc" />
</svg>

<!-- Created with Inkscape (http://www.inkscape.org/) -->
<svg xmlns="http://www.w3.org/2000/svg" viewBox="0 0 16 16">
 <path d="m 0 8 0 6.375 c -0.008 0.329 0.296 0.633 0.625 0.625 l 14.75 0 c 0.329 0.008 0.633 -0.296 0.625 -0.625 l 0 -4.375 -7 0 0 -2 z" style="visibility:visible;fill:#8d6e63;fill-opacity:1;stroke:none;display:inline;color:#000;fill-rule:nonzero"/>
 <path d="m 0 11 16 0 0 -6.344 c 0.008 -0.329 -0.296 -0.665 -0.625 -0.656 l -6.375 0 0 -1.375 c -0.008 -0.319 -0.243 -0.633 -0.563 -0.625 l -7.938 0 c -0.276 0.05 -0.497 0.345 -0.5 0.625 z" style="visibility:visible;fill:#8d6e63;opacity:0.4;fill-opacity:1;stroke:none;display:inline;color:#000;fill-rule:nonzero"/>
</svg>
